!!!OTL: RARITETE SEIN ZU SEHN
!!!ARE: Europa, Mitteleuropa, Deutschland
!!!SCT: F0083
!!!YEM: Copyright 1995, estate of Helmut Schaffrath.
**kern
*ICvox
*Ivox
*M2/4
*k[]
*C:
=1
{8G
8G
8G
8c
=2
8E
8G
4C}
=3
{8G
8c
8c
8e
=4
8.d
16B
8G
8r}
=5
{8G
8G
8G
8c
=6
8E
8G
4C}
=7
{8G
8c
8c
8e
=8
8.d
16B
8G
8r}
=9
{8e
8c
8c
16d
16e
=10
8f
8d
4d}
=11
{8e
8c
8c
16d
16e
=12
8d
8B
4G}
=13
{8.c
16B
8c
16E
16F
=14
4G
8C
8r}
==
!!!AGN: Kirmes -, Guckkasten - Lied
!!!ONB: ESAC (Essen Associative Code) Database: FINK
!!!AMT: simple duple
!!!AIN: vox
!!!EED: Helmut Schaffrath
!!!EEV: 1.0
*-
